assets/images/copy.svg

<svg height="14" viewBox="0 0 13 14" width="13" xmlns="http://www.w3.org/2000/svg" xmlns:xlink="http://www.w3.org/1999/xlink"><filter id="a"><feColorMatrix in="SourceGraphic" type="matrix" values="0 0 0 0 0.141176 0 0 0 0 0.450980 0 0 0 0 0.980392 0 0 0 1.000000 0"/></filter><g fill="none" fill-rule="evenodd" filter="url(#a)" transform="translate(-213 -138)"><g fill="#336afa" fill-rule="nonzero" transform="translate(213 138)"><path d="m9.38888889 1.94444444h-8.18518519c-.66445724.00080357-1.20290778.54443153-1.2037037 1.21527778v9.23611108c0 .6703473.54022222 1.2152778 1.2037037 1.2152778h8.18518519c.66396301 0 1.20370371-.5449305 1.20370371-1.2152778v-9.23611108c0-.66986111-.5397407-1.21527778-1.20370371-1.21527778zm.24074074 10.45138886c0 .1336806-.10833333.2430556-.24074074.2430556h-8.18518519c-.13295744 0-.24074074-.1088197-.24074074-.2430556v-9.23611108c0-.13423587.1077833-.24305555.24074074-.24305555h8.18518519c.13295744 0 .24074074.10881968.24074074.24305555z"/><path d="m11.3148148 0h-8.18518517c-.26591488 0-.48148148.21763936-.48148148.48611111 0 .26847176.2155666.48611111.48148148.48611111h8.18518517c.1329575 0 .2407408.10881968.2407408.24305556v9.23611112c0 .2684717.2155666.4861111.4814814.4861111.2659149 0 .4814815-.2176394.4814815-.4861111v-9.23611112c0-.66986111-.5397407-1.21527778-1.2037037-1.21527778z"/><path d="m7.7037037 5.58541667h-4.81481481c-.26591488 0-.48148148.21763935-.48148148.48611111 0 .26847175.2155666.48611111.48148148.48611111h4.81481481c.26591488 0 .48148149-.21763936.48148149-.48611111 0-.26847176-.21556661-.48611111-.48148149-.48611111zm-1.92592592 2.97402777h-2.88888889c-.26591488 0-.48148148.21763936-.48148148.48611112 0 .26847175.2155666.48611111.48148148.48611111h2.88888889c.26591488 0 .48148148-.21763936.48148148-.48611111 0-.26847176-.2155666-.48611112-.48148148-.48611112z"/></g></g></svg>

<?xml version="1.0" encoding="UTF-8"?>
<svg width="13px" height="14px" viewBox="0 0 13 14" version="1.1" xmlns="http://www.w3.org/2000/svg" xmlns:xlink="http://www.w3.org/1999/xlink">
    <title>复制</title>
    <defs>
        <filter id="filter-1">
            <feColorMatrix in="SourceGraphic" type="matrix" values="0 0 0 0 0.141176 0 0 0 0 0.450980 0 0 0 0 0.980392 0 0 0 1.000000 0"></feColorMatrix>
        </filter>
    </defs>
    <g id="页面-1" stroke="none" stroke-width="1" fill="none" fill-rule="evenodd">
        <g id="复制" transform="translate(-213.000000, -138.000000)" filter="url(#filter-1)">
            <g transform="translate(213.000000, 138.000000)">
                <path d="M9.38888889,1.94444444 L1.2037037,1.94444444 C0.539246464,1.94524801 0.000795916895,2.48887597 0,3.15972222 L0,12.3958333 C0,13.0661806 0.540222222,13.6111111 1.2037037,13.6111111 L9.38888889,13.6111111 C10.0528519,13.6111111 10.5925926,13.0661806 10.5925926,12.3958333 L10.5925926,3.15972222 C10.5925926,2.48986111 10.0528519,1.94444444 9.38888889,1.94444444 Z M9.62962963,12.3958333 C9.62962963,12.5295139 9.5212963,12.6388889 9.38888889,12.6388889 L1.2037037,12.6388889 C1.07074626,12.6388889 0.962962963,12.5300692 0.962962963,12.3958333 L0.962962963,3.15972222 C0.962962963,3.02548635 1.07074626,2.91666667 1.2037037,2.91666667 L9.38888889,2.91666667 C9.52184633,2.91666667 9.62962963,3.02548635 9.62962963,3.15972222 L9.62962963,12.3958333 Z" id="形状" fill="#336AFA" fill-rule="nonzero"></path>
                <path d="M11.3148148,0 L3.12962963,0 C2.86371475,0 2.64814815,0.217639358 2.64814815,0.486111111 C2.64814815,0.754582865 2.86371475,0.972222222 3.12962963,0.972222222 L11.3148148,0.972222222 C11.4477723,0.972222222 11.5555556,1.0810419 11.5555556,1.21527778 L11.5555556,10.4513889 C11.5555556,10.7198606 11.7711222,10.9375 12.037037,10.9375 C12.3029519,10.9375 12.5185185,10.7198606 12.5185185,10.4513889 L12.5185185,1.21527778 C12.5185185,0.545416667 11.9787778,0 11.3148148,0 Z" id="路径" fill="#336AFA" fill-rule="nonzero"></path>
                <path d="M7.7037037,5.58541667 L2.88888889,5.58541667 C2.62297401,5.58541667 2.40740741,5.80305602 2.40740741,6.07152778 C2.40740741,6.33999953 2.62297401,6.55763889 2.88888889,6.55763889 L7.7037037,6.55763889 C7.96961858,6.55763889 8.18518519,6.33999953 8.18518519,6.07152778 C8.18518519,5.80305602 7.96961858,5.58541667 7.7037037,5.58541667 Z M5.77777778,8.55944444 L2.88888889,8.55944444 C2.62297401,8.55944444 2.40740741,8.7770838 2.40740741,9.04555556 C2.40740741,9.31402731 2.62297401,9.53166667 2.88888889,9.53166667 L5.77777778,9.53166667 C6.04369266,9.53166667 6.25925926,9.31402731 6.25925926,9.04555556 C6.25925926,8.7770838 6.04369266,8.55944444 5.77777778,8.55944444 Z" id="形状" fill="#336AFA" fill-rule="nonzero"></path>
            </g>
        </g>
    </g>
</svg>
